img/footer-tel.svg

<svg width="20" height="20" viewBox="0 0 20 20" fill="none" xmlns="http://www.w3.org/2000/svg">
<path d="M18.4211 13.1684C17.1873 13.1684 15.979 12.9758 14.8326 12.5969C14.2737 12.4042 13.64 12.5526 13.2716 12.9274L11.0011 14.6421C8.39685 13.2527 6.72948 11.5863 5.35688 8.99897L7.02529 6.78213C7.44529 6.36109 7.59583 5.74737 7.41583 5.1716C7.0358 4.02 6.84213 2.81053 6.84213 1.57895C6.84213 0.708405 6.13372 0 5.26318 0H1.57895C0.708405 0 0 0.708405 0 1.57895C0 11.7358 8.26422 20 18.4211 20C19.2916 20 20 19.2916 20 18.4211V14.7474C20 13.8768 19.2916 13.1684 18.4211 13.1684ZM18.9474 18.4211C18.9474 18.7116 18.7105 18.9474 18.4211 18.9474C8.84418 18.9474 1.05262 11.1558 1.05262 1.57895C1.05262 1.28842 1.28946 1.05262 1.57895 1.05262H5.26318C5.55267 1.05262 5.78951 1.28842 5.78951 1.57895C5.78951 2.92318 6.00005 4.24318 6.41265 5.49474C6.47369 5.69157 6.42425 5.89476 6.23162 6.09474L4.31581 8.63157C4.19477 8.79262 4.17583 9.0084 4.2674 9.18736C5.82844 12.2537 7.72427 14.1505 10.8127 15.7326C10.9906 15.8253 11.2085 15.8063 11.3695 15.6842L13.9611 13.72C14.1022 13.5811 14.3095 13.5327 14.4969 13.5947C15.7559 14.0106 17.0759 14.221 18.4211 14.221C18.7106 14.221 18.9475 14.4569 18.9475 14.7474V18.4211H18.9474Z" fill="#101315"/>
</svg>

<svg width="20" height="20" fill="none" xmlns="http://www.w3.org/2000/svg"><path d="M18.421 13.168c-1.234 0-2.442-.192-3.588-.571-.56-.193-1.193-.044-1.561.33l-2.27 1.715C8.396 13.252 6.728 11.586 5.356 9l1.668-2.217c.42-.42.57-1.035.39-1.61a11.447 11.447 0 01-.573-3.593A1.58 1.58 0 005.263 0H1.58A1.58 1.58 0 000 1.579C0 11.736 8.264 20 18.421 20A1.58 1.58 0 0020 18.421v-3.674a1.58 1.58 0 00-1.579-1.579zm.526 5.253c0 .29-.236.526-.526.526-9.577 0-17.368-7.791-17.368-17.368 0-.29.236-.526.526-.526h3.684c.29 0 .527.235.527.526 0 1.344.21 2.664.623 3.916.06.197.011.4-.181.6L4.316 8.632a.526.526 0 00-.049.555c1.561 3.067 3.457 4.963 6.546 6.546a.524.524 0 00.556-.049l2.592-1.964a.528.528 0 01.536-.125c1.259.416 2.579.626 3.924.626.29 0 .527.236.527.526v3.674z" fill="#101315"/></svg>
